X: 13
M: C|
L: 1/8
K: G
|: ze/f/ | g2fg afdf | g2fg az "b."^/ga | "c."baag .f2.d2 | edef gz :|
P: VAR:
"a."Hg2 || "b."zf || "c"b2 |] y8 y8 y8 y8 y8 y8 y8 y8


